components/AppDevelopmentCommon/Svg/svgs/magnifyingGlassEye.svg

<svg width="58" height="52" viewBox="0 0 58 52" fill="none" xmlns="http://www.w3.org/2000/svg">
<path d="M24.4665 10.7046C9.17233 10.7046 3.05469 24.4708 3.05469 24.4708C3.05469 24.4708 9.17233 38.234 24.4665 38.234C39.7606 38.234 45.8782 24.4708 45.8782 24.4708C45.8782 24.4708 39.7606 10.7046 24.4665 10.7046Z" stroke="#161616" stroke-width="2" stroke-linecap="round" stroke-linejoin="round"/>
<path d="M24.4674 32.1178C28.6907 32.1178 32.1144 28.6941 32.1144 24.4708C32.1144 20.2474 28.6907 16.8237 24.4674 16.8237C20.244 16.8237 16.8203 20.2474 16.8203 24.4708C16.8203 28.6941 20.244 32.1178 24.4674 32.1178Z" stroke="#161616" stroke-width="2" stroke-linecap="round" stroke-linejoin="round"/>
<path d="M39.6468 51.1765C49.3605 51.1765 57.2351 43.3019 57.2351 33.5882C57.2351 23.8745 49.3605 16 39.6468 16C29.9331 16 22.0586 23.8745 22.0586 33.5882C22.0586 43.3019 29.9331 51.1765 39.6468 51.1765Z" fill="#FFF281"/>
<path d="M39.5267 45.0113C45.9013 45.0113 51.0689 39.8437 51.0689 33.469C51.0689 27.0944 45.9013 21.9268 39.5267 21.9268C33.152 21.9268 27.9844 27.0944 27.9844 33.469C27.9844 39.8437 33.152 45.0113 39.5267 45.0113Z" fill="#FFF281" stroke="#161616" stroke-width="2" stroke-linecap="round" stroke-linejoin="round"/>
<path d="M47.6875 41.6309L54.3656 48.309" stroke="#161616" stroke-width="2" stroke-linecap="round" stroke-linejoin="round"/>
</svg>

<svg xmlns="http://www.w3.org/2000/svg" width="58" height="52" fill="none">
  <path stroke="#161616" stroke-linecap="round" stroke-linejoin="round" stroke-width="2" d="M24.466 10.705C9.172 10.705 3.055 24.47 3.055 24.47s6.117 13.763 21.412 13.763c15.294 0 21.411-13.763 21.411-13.763s-6.117-13.766-21.412-13.766Z" />
  <path stroke="#161616" stroke-linecap="round" stroke-linejoin="round" stroke-width="2" d="M24.467 32.118a7.647 7.647 0 1 0 0-15.294 7.647 7.647 0 0 0 0 15.294Z" />
  <path fill="#FFF281" d="M39.647 51.176c9.714 0 17.588-7.874 17.588-17.588C57.235 23.875 49.361 16 39.647 16c-9.714 0-17.588 7.875-17.588 17.588 0 9.714 7.874 17.588 17.588 17.588Z" />
  <path fill="#FFF281" stroke="#161616" stroke-linecap="round" stroke-linejoin="round" stroke-width="2" d="M39.527 45.011c6.374 0 11.542-5.167 11.542-11.542S45.9 21.927 39.527 21.927c-6.375 0-11.543 5.167-11.543 11.542s5.168 11.542 11.543 11.542Z" />
  <path stroke="#161616" stroke-linecap="round" stroke-linejoin="round" stroke-width="2" d="m47.688 41.63 6.678 6.679" />
</svg>
